X:1
T:I bei ligustri
T:I bei ligustri
T:Thomas Weelkes
C:Thomas Weelkes
%%score [ 1 2 3 ]
L:1/8
Q:1/4=120
M:4/4
K:F
V:1 treble-8 nm="Tenor 1" snm="T 1"
V:2 treble-8 nm="Tenor 2" snm="T 2"
V:3 bass nm="Bass" snm="B"
V:1
"^I        bei        li- gus-   tri e   ro-     se                        ch'in voi  na-tu-ra    po-     se" A4 A4 | %1
 B2 c4 e2 | _e4 d4- | d4 z2 A2 | d3 c B2 A2 | B4 A4 | %6
"^ch'in voi  na-tu-  ra     po-       se." A4 z2 c2 | f3 _e d2 cB | A4 =B4 :: %9
"^Don-                   na                   gen-" z4 d4- | d4 c4- | c4 B4 | %12
"^til                             mi fan'ogn'hor  mo- ri-                                    re,                                  si" A4 z4 | %13
 z2 F2 B2 c2 | d2 e2 f2 _ed | c3 B c4 | d8 | z4 B4 | %18
"^gra-                                 ve'e         la                                  mia        pe-      na e'l      mio      mar-" f8- | %19
 f4 _e4 | d8- | d4 c4 | d4 B4 | A4 G4 | %24
"^ti-                        re,                                              si                       gra-                               ve'e" A8 | %25
 =B8 | B8 | d8 | g8- | g4 f4 | %30
"^la         mia        pe-                                na e'l      mio mar-ti-                                  re." _e4 d4 | %31
 c8- | c4 B4 | A2 A2 G4- | G4 ^F4 | G8 :| %36
V:2
"^I        bei        li- gus-  tri e        ro-se             ch'in voi na- tu- ra  po-                 se" ^F4 F4 | %1
 G2 A4 B2- | B2 A2 B4 | z2 A2 d3 c | B2 A2 G2 ^F2 | G4 ^F4 | %6
"^ch'in voi    na- tu- ra    po-                    se.                            Don-                  na                   gen-" z2 c2 f3 _e | %7
 d2 c2 BA G2- | G2 ^F2 G4 :: z4 B4- | B4 A4- | A4 G4 | %12
"^til               mi   fan'ogn'hor mo- ri                                                  re,        si           gra-" ^F4 z2 A2 | %13
 B2 c2 d2 _e2 | d2 cB A4- | A2 GF G2 A2 | B4 B4 | d8- | %18
"^ve'e          la                                  mia        pe-      na e'l       mio      mar-       ti-" d4 c4 | %19
 B8- | B4 A4 | B4 G4 | A4 G4 | ^F4 G4- | %24
"^re,                                  si           gra-                              ve'e          la         mia" G4 ^F4 | %25
 G8 | z4 d4 | g8- | g4 f4 | _e4 d4 | %30
"^pe-      na e'l      mio     mar-        ti-                       re,      mar-        ti-                       re." c4 B4 | %31
 A4 G4 | ^F4 G4 | ^F4 G4 | A8 | G8 :| %36
V:3
"^I         bei        li- gus-  tri e    ro-     se ch'in voi na-tu-ra    po-                           se, ch'in" D,4 D,4 | %1
 G,2 F,4 D,2 | C,4 B,,2 G,,2 | D,3 C, B,,2 A,,2 | G,,2 ^F,,2 G,,2 D,2 | G,,4 D,2 D,2 | %6
"^voi   na-tu-ra      po-                                 se.              Don-                    na                     gen-" F,3 _E, D,2 C,2 | %7
 B,,2 A,,2 B,,2 C,2 | D,4 G,,4 :: G,8 | ^F,8 | G,8 | D,2 D,2 E,2 F,2 | G,2 A,2 B,4- | %14
 B,2 A,G, F,4- | F,2 _E,D, C,2 F,2 | B,,4 B,,4 | B,8- | %18
"^ve'e         la                                  mia        pe-      na e'l       mio                              mar-" B,4 A,4 | %19
 G,8- | G,4 ^F,4 | G,4 _E,4 | D,8- | D,4 _E,4 | %24
"^ti-                       re,        si          gra-                                ve'e        la         mia        pe-" D,8 | %25
 G,,4 G,,4 | G,8- | G,4 F,4 | _E,4 D,4 | C,8 | C,8 | C,8 | D,8 | D,4 _E,4 | D,8 | G,,8 :| %36

